X:273
M:3/4
L:1/4
K:Ab
E | E2 F/ G/  | A E A | B E B | c2 c | d F d | c A c | c B F | B2 E | E2 F/ G/ | A E A | B E B | c2 c | e d B | A G A | c c B | A2 c3/4 d/4 | e2 c3/4 d/4 | e2 e3/4 c/4 | A B c | B2 B3/4 c/4 | d2 B3/4 c/4 | d2 d/ A/ | e e d | c2 E | E2 F/ G/ | A E A | B E B | c2 !sintro!c | e d B | A G A | c c B | A2 !eintro!|]
